data/playwrite-at.svg

<svg width="100.86" height="23.1" viewBox="0 0 100.86 23.1" xmlns="http://www.w3.org/2000/svg"><path transform="translate(0 17.85) scale(.014 -.014)" d="m169-14q-44 0-44 28v834q0 14 11.5 20.5t33.5 6.5h190q100 0 167-22t101.5-70 34.5-127q0-77-29-130.5t-76-87.5-103-53.5-111-28.5q-37-5-71-7.5t-60-2.5v-332q0-14-11-21t-33-7zm44 439q19 0 40.5 1t44.5 3.5 46 5.5q57 10 109.5 34t86 69 33.5 117q0 51-24 81.5t-71.5 44.5-117.5 14h-147z"/><path transform="translate(9.8 17.85) scale(.014 -.014)" d="m-91-17q-19 0-28 11.5t-9 26 9 26 28 11.5q27 0 55.5 13.5t57 38 56.5 59 55 76.5 50.5 89.5 42.5 98.5 33 104 22 107 8 104q0 14 13 21.5t30 7.5 30-7.5 13-21.5q0-45-9-97.5t-25.5-108.5-40-113-51.5-111.5-60-104.5-67-92-71-73-71.5-48-70.5-17zm308 0q-23 0-41 7t-29.5 20.5-17.5 34-6 46.5v587q0 112 34 164t101 52q37 0 63-17.5t40-50 14-78.5q0-19-13-28t-30-9-30 9-13 28q0 23-3.5 37.5t-11.5 21.5-20 7q-16 0-26.5-14.5t-14.5-48-4-91.5v-556q0-16 2.5-26t7.5-14 13-4 15 4.5 14 14.5 15 24q5 9 14 10t21-5q13-7 17-15.5t0-17.5q-12-29-28.5-49.5t-37-31.5-45.5-11z"/><path transform="translate(15.316 17.85) scale(.014 -.014)" d="m234-17q-52 0-90.5 28.5t-59.5 82.5-21 132q0 52 9.5 97t28 81.5 46 62 63 39 78.5 13.5q34 0 64-8t60-24v3q0 12 11 18.5t33 6.5 32.5-6.5 10.5-19.5v-385q0-16 2.5-26t8-14 13.5-4 14.5 4.5 13 14 15.5 24.5q4 9 13 10.5t21-5.5q13-6 18-15.5t0-20.5q-9-24-25-44t-36.5-32.5-46.5-12.5q-24 0-41.5 7t-30 20.5-18.5 32.5-7 43q0 13-0.5 27.5t-0.5 29.5q-19-53-47-88.5t-61-53.5-70-18zm-83 245q0-48 9.5-85.5t31.5-58.5 56-21q35 0 67 31t57 88 40 136v92q-31 18-58.5 24.5t-52.5 6.5q-28 0-51.5-9t-42-26.5-31-43-19-59-6.5-75.5z"/><path transform="translate(24.024 17.85) scale(.014 -.014)" d="m492 35q17 12 33 23.5t30.5 21 26.5 17 21 13.5q17 9 28 4.5t16-17.5 2-27-17-23q-15-9-32-21t-35-24.5-36-26-37-26.5zm-168-429q-39 0-69 14.5t-46 41-16 59.5q0 27 9 53t29 52.5 52 56 77 62.5q18 13 36 26.5t36 26.5v162q-17-49-40-82.5t-48.5-54-52-30.5-51.5-10q-42 0-75 16t-52 53-19 98v339q0 13 10.5 19.5t31.5 6.5q22 0 33-6.5t11-19.5v-331q0-33 7.5-54.5t23.5-32 42-10.5q33 0 61.5 21t51 60.5 39 92.5 27.5 115v139q0 13 10.5 19.5t32.5 6.5 33-6.5 11-19.5v-625q0-61-13.5-109t-39-81-61.5-50.5-81-17.5zm7 78q24 0 43 11.5t32 34.5 19.5 58 6.5 81v40q-12-8-24-17t-25-18q-27-21-46-39.5t-31-35.5-18-33.5-6-33.5q0-12 5.5-23t16.5-18 27-7z"/><path transform="translate(32.984 17.85) scale(.014 -.014)" d="m232-18q-31 0-56 10t-43.5 30.5-28.5 51.5-10 72v343q0 12 10 19t33 7 33.5-7 10.5-19v-318q0-32 5.5-57.5t19-39 38.5-13.5q28 0 51.5 19.5t42 52.5 31.5 72 18 78v206q0 11 9.5 18.5t32.5 7.5q24 0 34-7.5t10-18.5v-296q0-34 3.5-59t12.5-41.5 24.5-24 38.5-7.5q20 0 38 10t33 28 26.5 41.5 20 51 12.5 57 4 59.5q0 55-6 90.5t-17.5 53-28.5 17.5q-14 0-20-7.5t-6-17.5q0-15 10-24t31-13.5 49-4.5q45 0 78.5 14t68.5 41q8 7 17 1t16-18 8.5-23.5-6.5-17.5q-43-32-85-47.5t-101-15.5q-49 0-84.5 12.5t-54.5 37.5-19 61q0 28 13 48t35 31.5 48 11.5q47 0 78.5-29.5t47.5-81 16-118.5q0-40-7-79.5t-20.5-76.5-33-68-45-54.5-56.5-36.5-68-13q-43 0-74 14.5t-50 45.5-28 78q-18-42-42.5-72.5t-54-47.5-63.5-17z"/><path transform="translate(44.926 17.85) scale(.014 -.014)" d="m-95-17q-19 0-28.5 11.5t-9.5 26 9 26 28 11.5q34 0 63.5 22t54.5 68 48.5 119 45.5 175l59-15q-24-122-50-206.5t-58-137-71.5-76.5-90.5-24zm541 0q-25 0-43 7.5t-29.5 21.5-17 34-5.5 44q0 27 2.5 63.5t5 77 5 78.5 2.5 67q0 32-8.5 42t-28.5 10q-25 0-58-9.5t-63.5-19-49.5-9.5q-18 0-34.5 19t-26.5 46-10 54q0 18 6.5 33.5t19 24 32.5 8.5q28 0 38-18.5t10-43.5q0-11-1.5-22.5t-4.5-21.5q11 0 38.5 11t62 22 65.5 11q32 0 54-12t33.5-41 11.5-80q0-29-2.5-67.5t-5-79.5-5-76-2.5-57q0-20 5-30t18-10q8 0 15 4.5t14.5 14.5 15.5 24q5 9 13.5 10t21.5-5q12-7 16.5-15.5t-0.5-17.5q-11-29-27.5-49.5t-37.5-31.5-45-11z"/><path transform="translate(52.878 17.85) scale(.014 -.014)" d="m189-17q-47 0-71 27.5t-24 80.5v398q0 13 10.5 19.5t31.5 6.5q22 0 33-6.5t11-19.5v-385q0-25 6-34.5t19-9.5q8 0 13.5 5t12 14.5 14.5 24.5q5 8 14.5 8.5t20.5-4.5q12-6 17-15t0-18q-11-29-27.5-49t-36-31.5-44.5-11.5zm-56 686q-28 0-42 15.5t-14 46.5q0 32 14 48t42 16 41.5-16 13.5-48q2-31-12.5-46.5t-42.5-15.5z"/><path transform="translate(57.078 17.85) scale(.014 -.014)" d="m-57-17q-12 0-17.5 11.5t-4.5 26 8.5 26 21.5 11.5q25 0 53 30t58.5 81.5 61 116.5 58.5 136.5 52.5 141.5 43 131.5 28.5 105.5 10 63q0 13 10 19.5t32 6.5 33-6.5 11-19.5v-753q36 13 73 41t80.5 73 96.5 111q5 7 13.5 9.5t21.5-5.5q14-9 14.5-18t-4.5-16q-45-58-91.5-110.5t-96.5-92-107-56.5v-36q0-13-11-19.5t-33-6.5-32 6.5-10 19.5v25q-32 2-60.5 12.5t-45.5 29.5-17 49q0 29 22 48t53 19q14 0 26-3.5t22-9.5v416q-19-66-43-136.5t-52.5-139-61-130-67.5-108.5-72.5-73.5-76.5-26.5zm319 140q0-5 4.5-10.5t16-9 32.5-4.5q-3 18-15 27t-22 9q-16 0-16-12z"/><path transform="translate(65.898 17.85) scale(.014 -.014)" d="m291-18q-50 0-89.5 20t-68.5 53.5-47.5 75-27.5 84.5-9 82q0 36 8 69.5t23 61 37 48 49.5 32 61.5 11.5q43 0 72.5-17.5t44.5-47.5 15-65q0-36-14-75t-39-77-57-74q-46-51-104-92t-119.5-65-117.5-23q-14 0-21 11.5t-5 26 13 26 32 11.5q41 0 87 19t90 50.5 79 70.5q27 30 46.5 61t30.5 62.5 11 58.5q0 35-13.5 47.5t-39.5 12.5q-14 0-28.5-7.5t-26.5-24-19-42.5-7-64q0-41 11-83.5t33-78 52.5-57 67.5-21.5q30 0 52.5 11.5t42.5 30.5 38 41q12 15 25 14t27-12 17-21.5-6-24.5q-27-42-61.5-68t-71.5-38.5-74-12.5z"/><path transform="translate(76.314 17.85) scale(.014 -.014)" d="m161-17q-21 0-42.5 5.5t-40.5 15-34 22.5q-12 10-13.5 23.5t10.5 27.5q9 15 20.5 16.5t23.5-6.5q22-11 39-17t37-6q23 0 46 13.5t46 41 45.5 71.5 46 105.5 47 142.5 48 181.5 50.5 223.5q6 29 24 38t45 9q28 0 45-8.5t22-38.5q11-50 23.5-107.5t26.5-119 30.5-125 35-127 37.5-124.5q14-44 27.5-77t27-55.5 27-33.5 27.5-11q23 0 39.5 18t28 58.5 20.5 106.5q1 15 12.5 21t30.5 3q18-3 27-11.5t7-23.5q-7-87-28.5-143t-55.5-82.5-82-26.5q-31 0-56.5 12t-48 39.5-42.5 71.5-42 107q-4 14-8 27.5t-9 25.5h-262q-23-59-46.5-105.5t-48-80.5-50.5-55.5-54.5-31.5-58.5-10zm286 361h210q-19 70-37 141t-33.5 141.5-30.5 138.5q-27-128-54.5-232.5t-54.5-188.5z"/><path transform="translate(91.196 17.85) scale(.014 -.014)" d="m345-15q-44 0-44 28v782h-258q-15 0-21.5 9t-6.5 31q0 23 6.5 31.5t21.5 8.5h605q15 0 21-8.5t6-31.5q0-22-6-31t-21-9h-259v-782q0-14-11-21t-33-7z"/></svg>

<?xml version="1.0" encoding="utf-8" ?>
<svg baseProfile="tiny" height="100%" version="1.2" width="100%" xmlns="http://www.w3.org/2000/svg" xmlns:ev="http://www.w3.org/2001/xml-events" xmlns:xlink="http://www.w3.org/1999/xlink"><defs /><g><path d="M169 -14Q125 -14 125 14V848Q125 862 136.5 868.5Q148 875 170 875H360Q460 875 527.0 853.0Q594 831 628.5 783.0Q663 735 663 656Q663 579 634.0 525.5Q605 472 558.0 438.0Q511 404 455.0 384.5Q399 365 344 356Q307 351 273.0 348.5Q239 346 213 346V14Q213 0 202.0 -7.0Q191 -14 169 -14ZM213 425Q232 425 253.5 426.0Q275 427 298.0 429.5Q321 432 344 435Q401 445 453.5 469.0Q506 493 539.5 538.0Q573 583 573 655Q573 706 549.0 736.5Q525 767 477.5 781.0Q430 795 360 795H213Z" transform="translate(0.0, 72) scale(0.072, -0.072)" /><path d="M-91 -17Q-110 -17 -119.0 -5.5Q-128 6 -128.0 20.5Q-128 35 -119.0 46.5Q-110 58 -91 58Q-64 58 -35.5 71.5Q-7 85 21.5 109.5Q50 134 78.0 168.5Q106 203 133.0 245.0Q160 287 183.5 334.5Q207 382 226.0 433.0Q245 484 259.0 537.0Q273 590 281.0 644.0Q289 698 289 748Q289 762 302.0 769.5Q315 777 332.0 777.0Q349 777 362.0 769.5Q375 762 375 748Q375 703 366.0 650.5Q357 598 340.5 542.0Q324 486 300.5 429.0Q277 372 249.0 317.5Q221 263 189.0 213.0Q157 163 122.0 121.0Q87 79 51.0 48.0Q15 17 -20.5 0.0Q-56 -17 -91 -17ZM217 -17Q194 -17 176.0 -10.0Q158 -3 146.5 10.5Q135 24 129.0 44.5Q123 65 123 91V678Q123 790 157.0 842.0Q191 894 258 894Q295 894 321.0 876.5Q347 859 361.0 826.5Q375 794 375 748Q375 729 362.0 720.0Q349 711 332.0 711.0Q315 711 302.0 720.0Q289 729 289 748Q289 771 285.5 785.5Q282 800 274.0 807.0Q266 814 254 814Q238 814 227.5 799.5Q217 785 213.0 751.5Q209 718 209 660V104Q209 88 211.5 78.0Q214 68 219.0 64.0Q224 60 232 60Q240 60 247.0 64.5Q254 69 261.0 79.0Q268 89 276 103Q281 112 290.0 113.0Q299 114 311 108Q324 101 328.0 92.5Q332 84 328 75Q316 46 299.5 25.5Q283 5 262.5 -6.0Q242 -17 217 -17Z" transform="translate(50.4, 72) scale(0.072, -0.072)" /><path d="M234 -17Q182 -17 143.5 11.5Q105 40 84.0 94.0Q63 148 63 226Q63 278 72.5 323.0Q82 368 100.5 404.5Q119 441 146.5 466.5Q174 492 209.5 505.5Q245 519 288 519Q322 519 352.0 511.0Q382 503 412 487V490Q412 502 423.0 508.5Q434 515 456 515Q478 515 488.5 508.5Q499 502 499 489V104Q499 88 501.5 78.0Q504 68 509.5 64.0Q515 60 523 60Q531 60 537.5 64.5Q544 69 550.5 78.5Q557 88 566 103Q570 112 579.0 113.5Q588 115 600 108Q613 102 618.0 92.5Q623 83 618 72Q609 48 593.0 28.0Q577 8 556.5 -4.5Q536 -17 510 -17Q486 -17 468.5 -10.0Q451 -3 438.5 10.5Q426 24 420.0 43.0Q414 62 413 86Q413 99 412.5 113.5Q412 128 412 143Q393 90 365.0 54.5Q337 19 304.0 1.0Q271 -17 234 -17ZM151 228Q151 180 160.5 142.5Q170 105 192.0 84.0Q214 63 248 63Q283 63 315.0 94.0Q347 125 372.0 182.0Q397 239 412 318V410Q381 428 353.5 434.5Q326 441 301 441Q273 441 249.5 432.0Q226 423 207.5 405.5Q189 388 176.5 362.5Q164 337 157.5 303.5Q151 270 151 228Z" transform="translate(78.768, 72) scale(0.072, -0.072)" /><path d="M492 35Q509 47 525.0 58.5Q541 70 555.5 79.5Q570 89 582.0 96.5Q594 104 603 110Q620 119 631.0 114.5Q642 110 647.0 97.0Q652 84 649.0 70.0Q646 56 632 47Q617 38 600.0 26.0Q583 14 565.0 1.5Q547 -11 529.0 -24.5Q511 -38 492 -51ZM324 -394Q285 -394 255.0 -379.5Q225 -365 209.0 -338.5Q193 -312 193 -279Q193 -252 202.0 -226.0Q211 -200 231.0 -173.5Q251 -147 283.0 -117.5Q315 -88 360 -55Q378 -42 396.0 -28.5Q414 -15 432 -2V160Q415 111 392.0 77.5Q369 44 343.5 23.5Q318 3 291.5 -7.0Q265 -17 240 -17Q198 -17 165.0 -1.0Q132 15 113.0 52.0Q94 89 94 150V489Q94 502 104.5 508.5Q115 515 136 515Q158 515 169.0 508.5Q180 502 180 489V158Q180 125 187.5 103.5Q195 82 211.0 71.5Q227 61 253 61Q286 61 314.5 82.0Q343 103 365.5 142.5Q388 182 404.5 235.0Q421 288 432 350V489Q432 502 442.5 508.5Q453 515 475 515Q497 515 508.0 508.5Q519 502 519 489V-136Q519 -197 505.5 -245.0Q492 -293 466.5 -326.0Q441 -359 405.0 -376.5Q369 -394 324 -394ZM331 -316Q355 -316 374.0 -304.5Q393 -293 406.0 -270.0Q419 -247 425.5 -212.0Q432 -177 432 -131V-91Q420 -99 408.0 -108.0Q396 -117 383 -126Q356 -147 337.0 -165.5Q318 -184 306.0 -201.0Q294 -218 288.0 -234.5Q282 -251 282 -268Q282 -280 287.5 -291.0Q293 -302 304.0 -309.0Q315 -316 331 -316Z" transform="translate(123.55199999999999, 72) scale(0.072, -0.072)" /><path d="M232 -18Q201 -18 176.0 -8.0Q151 2 132.5 22.5Q114 43 104.0 74.0Q94 105 94 146V489Q94 501 104.0 508.0Q114 515 137 515Q160 515 170.5 508.0Q181 501 181 489V171Q181 139 186.5 113.5Q192 88 205.5 74.5Q219 61 244 61Q272 61 295.5 80.5Q319 100 337.5 133.0Q356 166 369.0 205.0Q382 244 387 283V489Q387 500 396.5 507.5Q406 515 429 515Q453 515 463.0 507.5Q473 500 473 489V193Q473 159 476.5 134.0Q480 109 489.0 92.5Q498 76 513.5 68.5Q529 61 552 61Q572 61 590.0 71.0Q608 81 623.0 99.0Q638 117 649.5 140.5Q661 164 669.5 191.5Q678 219 682.0 248.5Q686 278 686 308Q686 363 680.0 398.5Q674 434 662.5 451.5Q651 469 634 469Q620 469 614.0 461.5Q608 454 608 444Q608 429 618.0 420.0Q628 411 649.0 406.5Q670 402 698 402Q743 402 776.5 416.0Q810 430 845 457Q853 464 862.0 458.0Q871 452 878.0 440.0Q885 428 886.5 416.5Q888 405 880 399Q837 367 795.0 351.5Q753 336 694 336Q645 336 609.5 348.5Q574 361 555.0 386.0Q536 411 536 447Q536 475 549.0 495.0Q562 515 584.0 526.5Q606 538 632 538Q679 538 710.5 508.5Q742 479 758.0 427.5Q774 376 774 309Q774 269 767.0 229.5Q760 190 746.5 153.0Q733 116 713.5 85.0Q694 54 668.5 30.5Q643 7 612.0 -6.0Q581 -19 544 -19Q501 -19 470.0 -4.5Q439 10 420.0 41.0Q401 72 392 119Q374 77 349.5 46.5Q325 16 295.5 -1.0Q266 -18 232 -18Z" transform="translate(169.632, 72) scale(0.072, -0.072)" /><path d="M-95 -17Q-114 -17 -123.5 -5.5Q-133 6 -133.0 20.5Q-133 35 -124.0 46.5Q-115 58 -96 58Q-62 58 -32.5 80.0Q-3 102 22.0 148.0Q47 194 70.5 267.0Q94 340 116 442L175 427Q151 305 125.0 220.5Q99 136 67.0 83.5Q35 31 -4.5 7.0Q-44 -17 -95 -17ZM446 -17Q421 -17 403.0 -9.5Q385 -2 373.5 12.0Q362 26 356.5 46.0Q351 66 351 90Q351 117 353.5 153.5Q356 190 358.5 230.5Q361 271 363.5 309.0Q366 347 366 376Q366 408 357.5 418.0Q349 428 329 428Q304 428 271.0 418.5Q238 409 207.5 399.5Q177 390 158 390Q140 390 123.5 409.0Q107 428 97.0 455.0Q87 482 87 509Q87 527 93.5 542.5Q100 558 112.5 566.5Q125 575 145 575Q173 575 183.0 556.5Q193 538 193 513Q193 502 191.5 490.5Q190 479 187 469Q198 469 225.5 480.0Q253 491 287.5 502.0Q322 513 353 513Q385 513 407.0 501.0Q429 489 440.5 460.0Q452 431 452 380Q452 351 449.5 312.5Q447 274 444.5 233.0Q442 192 439.5 157.0Q437 122 437 100Q437 80 442.0 70.0Q447 60 460 60Q468 60 475.0 64.5Q482 69 489.5 79.0Q497 89 505 103Q510 112 518.5 113.0Q527 114 540 108Q552 101 556.5 92.5Q561 84 556 75Q545 46 528.5 25.5Q512 5 491.0 -6.0Q470 -17 446 -17Z" transform="translate(231.048, 72) scale(0.072, -0.072)" /><path d="M189 -17Q142 -17 118.0 10.5Q94 38 94 91V489Q94 502 104.5 508.5Q115 515 136 515Q158 515 169.0 508.5Q180 502 180 489V104Q180 79 186.0 69.5Q192 60 205 60Q213 60 218.5 65.0Q224 70 230.5 79.5Q237 89 245 104Q250 112 259.5 112.5Q269 113 280 108Q292 102 297.0 93.0Q302 84 297 75Q286 46 269.5 26.0Q253 6 233.5 -5.5Q214 -17 189 -17ZM133 669Q105 669 91.0 684.5Q77 700 77 731Q77 763 91.0 779.0Q105 795 133 795Q161 795 174.5 779.0Q188 763 188 731Q190 700 175.5 684.5Q161 669 133 669Z" transform="translate(271.944, 72) scale(0.072, -0.072)" /><path d="M-57 -17Q-69 -17 -74.5 -5.5Q-80 6 -79.0 20.5Q-78 35 -70.5 46.5Q-63 58 -49 58Q-24 58 4.0 88.0Q32 118 62.5 169.5Q93 221 123.5 286.0Q154 351 182.0 422.5Q210 494 234.5 564.0Q259 634 277.5 695.5Q296 757 306.0 801.0Q316 845 316 864Q316 877 326.0 883.5Q336 890 358 890Q380 890 391.0 883.5Q402 877 402 864V111Q438 124 475.0 152.0Q512 180 555.5 225.0Q599 270 652 336Q657 343 665.5 345.5Q674 348 687 340Q701 331 701.5 322.0Q702 313 697 306Q652 248 605.5 195.5Q559 143 509.0 103.5Q459 64 402 47V11Q402 -2 391.0 -8.5Q380 -15 358 -15Q336 -15 326.0 -8.5Q316 -2 316 11V36Q284 38 255.5 48.5Q227 59 210.0 78.0Q193 97 193 127Q193 156 215.0 175.0Q237 194 268 194Q282 194 294.0 190.5Q306 187 316 181V597Q297 531 273.0 460.5Q249 390 220.5 321.5Q192 253 159.5 191.5Q127 130 92.0 83.0Q57 36 19.5 9.5Q-18 -17 -57 -17ZM262 123Q262 118 266.5 112.5Q271 107 282.5 103.5Q294 100 315 99Q312 117 300.0 126.0Q288 135 278 135Q262 135 262 123Z" transform="translate(293.54400000000004, 72) scale(0.072, -0.072)" /><path d="M291 -18Q241 -18 201.5 2.0Q162 22 133.0 55.5Q104 89 85.5 130.5Q67 172 58.0 215.0Q49 258 49 297Q49 333 57.0 366.5Q65 400 80.0 427.5Q95 455 117.0 475.5Q139 496 166.5 507.5Q194 519 228 519Q271 519 300.5 501.5Q330 484 345.0 454.0Q360 424 360 389Q360 353 346.0 314.0Q332 275 307.0 237.0Q282 199 250 163Q204 112 146.0 71.0Q88 30 26.5 6.0Q-35 -18 -91 -17Q-105 -17 -112.0 -5.5Q-119 6 -117.0 20.5Q-115 35 -104.0 46.5Q-93 58 -72 58Q-31 58 15.0 77.0Q61 96 105.0 127.5Q149 159 184 198Q211 228 230.5 259.0Q250 290 261.0 321.5Q272 353 272 380Q272 415 258.5 427.5Q245 440 219 440Q205 440 190.5 432.5Q176 425 164.0 408.5Q152 392 145.0 366.0Q138 340 138 302Q138 261 149.0 218.5Q160 176 182.0 140.5Q204 105 234.5 83.5Q265 62 302 62Q332 62 354.5 73.5Q377 85 397.0 104.0Q417 123 435 145Q447 160 460.0 159.0Q473 158 487 147Q501 136 504.0 125.5Q507 115 498 101Q471 59 436.5 33.0Q402 7 365.0 -5.5Q328 -18 291 -18Z" transform="translate(338.90400000000005, 72) scale(0.072, -0.072)" /><path d="M161 -17Q140 -17 118.5 -11.5Q97 -6 78.0 3.5Q59 13 44 26Q32 36 30.5 49.5Q29 63 41 77Q50 92 61.5 93.5Q73 95 85 87Q107 76 124.0 70.0Q141 64 161 64Q184 64 207.0 77.5Q230 91 253.0 118.5Q276 146 298.5 190.0Q321 234 344.5 295.5Q368 357 391.5 438.0Q415 519 439.5 619.5Q464 720 490 843Q496 872 514.0 881.0Q532 890 559 890Q587 890 604.0 881.5Q621 873 626 843Q637 793 649.5 735.5Q662 678 676.0 616.5Q690 555 706.5 491.5Q723 428 741.5 364.5Q760 301 779 240Q793 196 806.5 163.0Q820 130 833.5 107.5Q847 85 860.5 74.0Q874 63 888 63Q911 63 927.5 81.0Q944 99 955.5 139.5Q967 180 976 246Q977 261 988.5 267.0Q1000 273 1019 270Q1037 267 1046.0 258.5Q1055 250 1053 235Q1046 148 1024.5 92.0Q1003 36 969.0 9.5Q935 -17 887 -17Q856 -17 830.5 -5.0Q805 7 782.5 34.5Q760 62 740.0 106.0Q720 150 698 213Q694 227 690.0 240.5Q686 254 681 266H419Q396 207 372.5 160.5Q349 114 324.5 80.0Q300 46 274.0 24.5Q248 3 219.5 -7.0Q191 -17 161 -17ZM447 344H657Q638 414 620.0 485.0Q602 556 586.5 626.5Q571 697 556 765Q529 637 501.5 532.5Q474 428 447 344Z" transform="translate(392.4720000000001, 72) scale(0.072, -0.072)" /><path d="M345 -15Q301 -15 301 13V795H43Q28 795 21.5 804.0Q15 813 15 835Q15 858 21.5 866.5Q28 875 43 875H648Q663 875 669.0 866.5Q675 858 675 835Q675 813 669.0 804.0Q663 795 648 795H389V13Q389 -1 378.0 -8.0Q367 -15 345 -15Z" transform="translate(469.0080000000001, 72) scale(0.072, -0.072)" /></g></svg>
